X:135
T: Dri lederne Struempf
N: D0216
O: Europa, Mitteleuropa, Deutschland, Bayern, Oberstdorf
N: kleinere Varianten zur Strophe notiert; Tonart ??
R: Tanz - Lied, Kinderlied
M: 2/4
L: 1/16
K: G
 |  |  |  | B4BBc2 | d4z2
B2 | c3Bc2d2 | B4z2
D2 | B3BB2c2 | d2d2d2
B2 | c2B2c2d2 | B4z2
D2 | B3BB2c2 | d2d2d2
B2 | c2B2c2d2 | B4z4

@@@ Tune index: 2657
